X:96
T:Humours of Glendart
R:Jig
C:trad
M:6/8
L:1/8
K:D
A |:BAF ADD | FEF DFA | BAF ADD | FEE E2  A|
  |BAF ADD | FEF DFA | dcB AFE |FDD D2A :|
  |:def d2B | ABA AFA | def d2f | efe edB |
  |def edB | ABA AFA | dcB AFE| FDD D2 A:|
